X:1
T: The Maquis of Bowmont's Reel
C:William Marshall
R:Reel
Q: 232
K:Bb
M:4/4
L:1/8
|:B|FB EB DB FB|Dd e1/2d1/2c1/2B1/2 cC CB|DB FB EB DB|Fd d1/2c1/2B1/2A1/2 BB, B,B|
FB EB DB FB|Dd e1/2d1/2c1/2B1/2 cC CB|DB FB EB DB|Fd d1/2c1/2B1/2A1/2 BB, B,B|
fB e1/2d1/2c1/2B1/2 fB dB|cF B1/2A1/2G1/2F1/2 cF AF|fB e1/2d1/2c1/2B1/2 fB dB|Fd Ac BB, B,B|
fB e1/2d1/2c1/2B1/2 fB dB|cF B1/2A1/2G1/2F1/2 cF AF|fB gB aB bB|dB d1/2c1/2B1/2A1/2 BB, B,:|
